icons/vip-crown-2-line.svg

<svg viewBox="0 0 24 24" fill="currentColor" xmlns="http://www.w3.org/2000/svg"><path d="M3.49709 8.06464L4.78355 18.9996H19.2266L20.513 8.06464L16.5032 10.7379L12.0051 4.44051L7.50694 10.7379L3.49709 8.06464ZM2.80577 5.20006L7.00505 7.99958L11.1913 2.13881C11.5123 1.6894 12.1369 1.58531 12.5863 1.90631C12.6761 1.97045 12.7546 2.04901 12.8188 2.13881L17.0051 7.99958L21.2043 5.20006C21.6639 4.89371 22.2847 5.01788 22.5911 5.47741C22.7228 5.67503 22.7799 5.91308 22.7522 6.14895L21.109 20.1164C21.0497 20.62 20.6229 20.9996 20.1158 20.9996H3.8943C3.38722 20.9996 2.9604 20.62 2.90115 20.1164L1.25792 6.14895C1.19339 5.60045 1.58573 5.10349 2.13423 5.03896C2.37011 5.01121 2.60816 5.06832 2.80577 5.20006ZM12.0051 14.9996C10.9005 14.9996 10.0051 14.1042 10.0051 12.9996C10.0051 11.895 10.9005 10.9996 12.0051 10.9996C13.1096 10.9996 14.0051 11.895 14.0051 12.9996C14.0051 14.1042 13.1096 14.9996 12.0051 14.9996Z"/></svg>

<svg xmlns="http://www.w3.org/2000/svg" viewBox="0 0 24 24">
    <g>
        <path fill="none" d="M0 0h24v24H0z"/>
        <path fill-rule="nonzero" d="M3.492 8.065L4.778 19h14.444l1.286-10.935-4.01 2.673L12 4.441l-4.498 6.297-4.01-2.673zM2.801 5.2L7 8l4.186-5.86a1 1 0 0 1 1.628 0L17 8l4.2-2.8a1 1 0 0 1 1.547.95l-1.643 13.967a1 1 0 0 1-.993.883H3.889a1 1 0 0 1-.993-.883L1.253 6.149A1 1 0 0 1 2.8 5.2zM12 15a2 2 0 1 1 0-4 2 2 0 0 1 0 4z"/>
    </g>
</svg>
